images/product/icons-flexible.svg

<svg xmlns="http://www.w3.org/2000/svg" viewBox="0 0 60 60"><title>icons-flexible</title><path fill="none" d="M0 0h60v60H0z"/><path d="M9.1 18.2L9 44.6a6.274 6.274 0 0 0 6.248 6.3h.052l29.3.1a6.274 6.274 0 0 0 6.3-6.248V44.7l.1-26.5H9.1z" fill="#5e5e5e"/><path d="M44.7 9.1L15.4 9a6.274 6.274 0 0 0-6.3 6.248V18.3H51v-2.8a6.3 6.3 0 0 0-6.2-6.4h-.1z" fill="#bcbcbc"/><path d="M21.1 27L16 30.1v-1.5l3.6-2.1-3.6-1.9v-1.7l5.1 3.2v.9zM27.3 30.1v1h-5.1v-1h5.1z" fill="#f1f2f2"/><path d="M15.4 9v3l29.3.1a2.9 2.9 0 0 1 2.3 1 3.255 3.255 0 0 1 1 2.3v6.9l-.1 22.4a3.33 3.33 0 0 1-3.3 3.3l-29.3-.1a2.9 2.9 0 0 1-2.3-1 3.255 3.255 0 0 1-1-2.3l.1-21.7v-7.6a3.33 3.33 0 0 1 3.3-3.3V9m0 0a6.274 6.274 0 0 0-6.3 6.248V19.9L9 44.6a6.274 6.274 0 0 0 6.248 6.3h.052l29.3.1a6.274 6.274 0 0 0 6.3-6.248V44.7l.1-22.4v-6.9a6.274 6.274 0 0 0-6.248-6.3H44.7L15.4 9z" opacity=".2"/></svg>

<svg id="flexible" xmlns="http://www.w3.org/2000/svg" viewBox="0 0 60 60"><title>icons-flexible</title><rect width="60" height="60" style="fill:none"/><path d="M9.1,18.2L9,44.6a6.274,6.274,0,0,0,6.248,6.3H15.3L44.6,51a6.274,6.274,0,0,0,6.3-6.248q0-.026,0-0.052L51,18.2H9.1Z" style="fill:#5e5e5e"/><path d="M44.7,9.1L15.4,9a6.274,6.274,0,0,0-6.3,6.248q0,0.026,0,.052v3H51V15.5a6.3,6.3,0,0,0-6.2-6.4H44.7Z" style="fill:#bcbcbc"/><path d="M21.1,27L16,30.1V28.6l3.6-2.1L16,24.6V22.9l5.1,3.2V27Z" style="fill:#f1f2f2"/><path d="M27.3,30.1v1H22.2v-1h5.1Z" style="fill:#f1f2f2"/><g style="opacity:0.20000000298023224"><path d="M15.4,9v3l29.3,0.1a2.9,2.9,0,0,1,2.3,1,3.255,3.255,0,0,1,1,2.3v3.9h0v3L47.9,44.7A3.329,3.329,0,0,1,44.6,48l-29.3-.1a2.9,2.9,0,0,1-2.3-1,3.255,3.255,0,0,1-1-2.3l0.1-21.7h0V15.3A3.329,3.329,0,0,1,15.4,12V9m0,0a6.274,6.274,0,0,0-6.3,6.248q0,0.026,0,.052v4.6h0L9,44.6a6.274,6.274,0,0,0,6.248,6.3H15.3L44.6,51h0a6.274,6.274,0,0,0,6.3-6.248q0-.026,0-0.052L51,22.3h0V15.4a6.274,6.274,0,0,0-6.248-6.3H44.7L15.4,9h0Z"/></g></svg>
